X:1
T:Title
%%score { ( 1 4 ) | ( 2 3 ) }
L:1/8
M:3/4
K:C
V:1 treble nm="Grand Piano"
V:4 treble 
V:2 bass 
V:3 bass 
V:1
 z2 z2[Q:1/4=108] [CE][DF] | [EG]2 [EG]2 [EG]2 | [_Ec]2 [EB]2 [EA]2 | [G,EG]2 [G,CE]2 .[A,FA]2 | %4
 [CEG]4 [G,CE]2 | [B,D]2 [CE]2 [DF]2 | [GB]2 [FA]2 [EG]2 | [DF]2 [B,D]2 [B,G]2 | [CE]4 [CE][DF] | %9
 [EG]2 [EG]2 [EG]2 | [_Ec]2 [EB]2 [EA]2 | [G,EG]2 [G,CE]2 .[A,FA]2 | [CEG]4 [G,CE]2 | %13
 [G,B,D]2 [G,DG]2 A2 | B2 [Dd]2 [Ec]2 | [DB]2 [DG]2 [^FA]2 |[M:2/4] G4 |[M:1/4] GG |[M:3/4] d4 dd | %19
 d2 e2 d2 | [Ec]2 [EB]2 .[A,FA]2 | [EG]4 [EG][EG] | A2 A2 A2 | [^FA]2 [FB]2 [Fc]2 | %24
 [^Fe]2 [Fd]2 [FA]2 | d4 GG | [Ge]4 [Ge][Ge] | [Ge]2 [Gd]2 [Gc]2 | [Fc]2 [GB]2 .[A,FA]2 | %29
 [CEG]4 [CEG][CEG] | [CFA]2 [CGB]2 [CAc]2 | z2 z2 c2 | c4 [FB]2 |[M:2/4] [Ec]4 |] %34
V:2
 z2 z2 [C,G,][C,G,] | [C,C]2 [C,C]2 [C,G,]2 | [C,^F,]2 [C,F,]2 [C,F,]2 | C,2 C,2 z B, | C,4 C,2 | %5
 [G,,G,]2 [G,,G,]2 [G,,G,]2 | [G,,G,]2 [G,,G,]2 [G,,G,]2 | [G,,G,]2 [G,,G,]2 [G,,G,]2 | %8
 [C,G,]4 [C,G,][C,G,] | [C,C]2 [C,C]2 [C,G,]2 | [C,^F,]2 [C,F,]2 [C,F,]2 | C,2 C,2 z B, | C,4 C,2 | %13
 G,,2 B,,2 [D,^F,D]2 | [G,D]2 [B,,G,]2 [C,G,]2 | [D,G,]2 [D,B,]2 [D,C]2 |[M:2/4] [G,B,]4 | %17
[M:1/4] G,G, |[M:3/4][K:treble] [G,B,F]4 [G,B,F][G,B,F] | [G,B,F]2 [G,B,G]2 [G,B,F]2 | %20
 [C,C]2 [C,G,]2 z B, | [C,C]4 [C,C][C,C] | [F,CF]2 [F,CF]2 [F,CF]2 | [D,C]2 [D,B,]2 [D,A,]2 | %24
 [D,C]2 [D,C]2 [D,C]2 | [G,B,F]4 [G,B,][K:bass][G,B,] | [C,C]4 [C,C][C,C] | [C,C]2 [D,B,]2 [E,C]2 | %28
 [F,A,]2 z G, z B, | C,4 C,C, | F,2 F,2 F,A, | [CE]4 [E,G,C][F,A,] | [G,E]4 [G,,G,]2 | %33
[M:2/4] [C,G,]4 |] %34
V:3
 x6 | x6 | x6 | z2 z2 C,2 | x6 | x6 | x6 | x6 | x6 | x6 | x6 | z2 z2 C,2 | x6 | x6 | x6 | x6 | %16
[M:2/4] x4 |[M:1/4] x2 |[M:3/4][K:treble] x6 | x6 | z2 z2 C,2 | x6 | x6 | x6 | x6 | x5[K:bass] x | %26
 x6 | x6 | z2 F,2 F,2 | x6 | x6 | x6 | x6 |[M:2/4] x4 |] %34
V:4
 x6 | x6 | x6 | x6 | x6 | x6 | x6 | x6 | x6 | x6 | x6 | x6 | x6 | x6 | x6 | x6 |[M:2/4] x4 | %17
[M:1/4] x2 |[M:3/4] x6 | x6 | x6 | x6 | x6 | x6 | x6 | x6 | x6 | x6 | x6 | x6 | x6 | G4 z D | x6 | %33
[M:2/4] x4 |] %34

